icons/folder-pipe.svg

<svg xmlns="http://www.w3.org/2000/svg" viewBox="0 0 32 32"><path fill="#00897b" d="m13.844 7.536-1.288-1.072A2 2 0 0 0 11.276 6H4a2 2 0 0 0-2 2v16a2 2 0 0 0 2 2h24a2 2 0 0 0 2-2V10a2 2 0 0 0-2-2H15.124a2 2 0 0 1-1.28-.464Z"/><path fill="#b2dfdb" fill-rule="evenodd" d="M30 22v2h-6v-2h2v-2h-2v-4a2 2 0 0 0-2-2h-6v-2h-2v8h2v-2h4v2h-2v2h2v4a2 2 0 0 0 2 2h8v2h2v-8Z"/></svg>

<svg xmlns="http://www.w3.org/2000/svg" viewBox="0 0 32 32">
  <path d="M13.84376,7.53645l-1.28749-1.0729A2,2,0,0,0,11.27591,6H4A2,2,0,0,0,2,8V24a2,2,0,0,0,2,2H28a2,2,0,0,0,2-2V10a2,2,0,0,0-2-2H15.12412A2,2,0,0,1,13.84376,7.53645Z" style="fill: #00897b"/>
  <path d="M30,22v2H24V22h2V20H24V16a2,2,0,0,0-2-2H16V12H14v8h2V18h4v2H18v2h2v4a2,2,0,0,0,2,2h8v2h2V22Z" style="fill: #b2dfdb;fill-rule: evenodd"/>
</svg>
